X:1
T: Coming Down The Mountain
S: John Meredith's 1950's recording of Sally Sloane on fiddle
M: 4/4
K:D
(3dcB|AF EF D2 EF|GF ED B,2 B,A,|DF A2 BG EG|F2 D2 D2 ((3dcB)|
|AF EF D2 EF|GF ED B,2-B,A,|D2 FA BG EG|F2 D2 D2 ((3EFG)|]
|A2 dB A2 FG|A2 dB A2 FG|A2 Bc dc BA|FA B B3 (3dcB|
AF EF D2 EF|GF ED B,2 B,A,|DF A2 BG EG|F2 D2 D4|]
